X: 8
T: Boys Of The Lough, The
Z: leprecawn
S: https://thesession.org/tunes/343#setting36500
R: reel
M: 4/4
L: 1/8
K: Dmaj
dB|:AF (3FFF A2AB|defd efdB|AF (3FFF ABAF|EDEF E2FG|
AF (3FFF A2AB|defd efdB|AF (3FFF ABAF|1 EDEF E2dB:|2 EDEF D2de||
faag f3e|d2fd efdB|AF (3FFF ABAF|1EDEF E2 de|2EDEF D2 de|
faag f3e|d2fd efdB|AF (3FFF ABde|fdgf e2 fg|
abag fgfe|d2fd efdB|AF (3FFF ABAF|EDEF D4||

